lib/logo_updates/nrk-logo-nrk-super.svg

<svg width="188" height="62" viewBox="0 0 188 62" fill="none" xmlns="http://www.w3.org/2000/svg">
<path d="M0 52V10.0038H13.7802V52H0ZM32.5283 16.6877L40.4532 52H25.3721L15.9092 10.0038H24.3676C26.3072 9.97864 28.1892 10.6624 29.6607 11.9264C31.1347 13.1373 32.1473 14.8184 32.5283 16.6877ZM42.5233 52V10.0038H56.3035V52H42.5233ZM66.7116 25.9743C65.2267 25.9888 63.7656 25.6003 62.4839 24.8504C61.2193 24.1194 60.1688 23.0689 59.438 21.8041C58.6872 20.5222 58.2986 19.0607 58.3134 17.5751C58.2964 16.0986 58.6853 14.6458 59.438 13.3755C60.1766 12.1245 61.2259 11.0853 62.4839 10.3588C63.766 9.60976 65.2269 9.2213 66.7116 9.23484C68.1877 9.21895 69.6399 9.60775 70.9108 10.3588C72.1562 11.0917 73.1943 12.13 73.9271 13.3755C74.6789 14.6462 75.0677 16.0987 75.0517 17.5751C75.0655 19.0605 74.6769 20.5218 73.9271 21.8041C73.202 23.0633 72.1627 24.113 70.9108 24.8504C69.6398 25.6029 68.1866 25.9918 66.7097 25.9743H66.7116ZM77.1807 52V10.0038H90.9621V52H77.1807ZM108.408 32.9538C108.447 32.9946 108.742 33.4776 109.295 34.403C109.848 35.3283 110.567 36.5114 111.454 37.952C112.341 39.392 113.277 40.9199 114.262 42.536C115.247 44.1521 116.174 45.6803 117.043 47.1202C117.908 48.5602 118.894 50.1867 120 52H104.859C103.912 50.4621 103.055 49.0721 102.286 47.83C101.517 46.5878 100.7 45.2471 99.8334 43.8077C98.9653 42.3698 98.1071 40.9699 97.2587 39.6081C96.4103 38.2464 95.6813 37.0536 95.0714 36.0297C94.459 35.0051 94.0348 34.3149 93.7989 33.9594C93.2139 33.0771 92.8677 32.058 92.7944 31.0019C92.853 29.9883 93.1791 29.0084 93.7397 28.1619C93.9762 27.7676 94.41 27.0675 95.0409 26.062C95.6717 25.0564 96.411 23.8637 97.2587 22.4835C98.1064 21.1034 98.9647 19.6936 99.8334 18.2543C100.702 16.815 101.519 15.4643 102.286 14.2025C103.056 12.9419 103.914 11.5421 104.859 10.0029H120L108.289 29.1082C107.926 29.6755 107.722 30.3292 107.697 31.0019C107.736 31.7081 107.983 32.3871 108.406 32.9538H108.408Z" fill="white"/>
<path d="M169.034 2.40764C172.728 3.97437 176.085 6.23893 178.922 9.07725C181.76 11.9137 184.025 15.2712 185.591 18.9657C187.209 22.7799 188.029 26.885 187.999 31.028C188.025 35.1526 187.206 39.2387 185.591 43.0343C184.024 46.7285 181.76 50.0859 178.922 52.9227C176.085 55.7608 172.728 58.0253 169.034 59.5924C165.22 61.2093 161.114 62.0283 156.971 61.9992C152.828 62.0287 148.722 61.2096 144.908 59.5924C141.22 58.0298 137.871 55.7645 135.048 52.9227C132.225 50.0798 129.972 46.7234 128.409 43.0343C126.794 39.2388 125.975 35.1526 126.001 31.028C125.971 26.885 126.79 22.7798 128.409 18.9657C129.971 15.2763 132.225 11.9198 135.048 9.07725C137.871 6.23523 141.22 3.96989 144.908 2.40764C148.722 0.790032 152.828 -0.0290793 156.971 0.000788347C161.114 -0.0287239 165.22 0.790374 169.034 2.40764ZM166.714 53.9377C169.679 52.6958 172.377 50.8937 174.659 48.63C176.941 46.3683 178.754 43.6784 179.995 40.7144C181.281 37.6483 181.932 34.3531 181.909 31.028C181.932 27.7034 181.281 24.4085 179.995 21.3426C178.75 18.3727 176.937 15.6741 174.659 13.398C172.379 11.1174 169.682 9.29582 166.714 8.03235C163.634 6.72493 160.318 6.06397 156.971 6.09043C153.644 6.06758 150.347 6.72855 147.286 8.03235C144.318 9.29556 141.62 11.1171 139.339 13.398C137.059 15.6782 135.237 18.3753 133.974 21.3426C132.67 24.404 132.009 27.7006 132.032 31.028C132.009 34.3558 132.67 37.6529 133.974 40.7144C135.233 43.6758 137.055 46.3642 139.339 48.63C141.622 50.8939 144.32 52.696 147.286 53.9377C150.351 55.2237 153.646 55.8748 156.971 55.8515C160.315 55.8785 163.629 55.2274 166.714 53.9377ZM143.428 34.5088C142.99 34.0778 142.644 33.5628 142.41 32.9948C142.176 32.4268 142.059 31.8173 142.066 31.203C142.051 30.5703 142.164 29.9412 142.398 29.3532C142.632 28.7652 142.982 28.2305 143.428 27.7812C143.857 27.3307 144.375 26.9744 144.949 26.7347C145.523 26.4951 146.141 26.3775 146.763 26.3893C147.402 26.377 148.037 26.4939 148.63 26.7331C149.223 26.9723 149.762 27.3288 150.213 27.7812C150.675 28.2219 151.039 28.7537 151.284 29.3427C151.529 29.9318 151.648 30.5653 151.635 31.203C151.64 31.8224 151.516 32.4361 151.271 33.0052C151.027 33.5742 150.666 34.0862 150.213 34.5088C149.762 34.9612 149.223 35.3177 148.63 35.5569C148.037 35.7961 147.402 35.913 146.763 35.9007C146.141 35.9125 145.523 35.7948 144.949 35.5552C144.375 35.3156 143.857 34.9592 143.428 34.5088ZM167.003 24.3594C167.042 24.2424 167.12 24.2424 167.236 24.3594L168.628 28.1292C168.653 28.2324 168.712 28.3239 168.797 28.3876C168.882 28.4514 168.986 28.4834 169.092 28.4781L173.209 28.5931C173.286 28.5931 173.325 28.6231 173.325 28.6811C173.314 28.761 173.272 28.8336 173.209 28.8841L170.251 31.4359C170.193 31.4527 170.138 31.4815 170.091 31.5204C170.044 31.5593 170.006 31.6076 169.979 31.6621C169.951 31.7167 169.936 31.7763 169.933 31.8372C169.93 31.8981 169.94 31.959 169.961 32.0159L171.006 35.7857C171.006 35.979 170.947 36.0757 170.831 36.0757L167.409 33.8138C167.185 33.7343 166.939 33.7343 166.714 33.8138L163.466 36.0757C163.311 36.0757 163.253 35.979 163.293 35.7857L164.337 32.0159C164.346 31.9019 164.324 31.7876 164.273 31.6853C164.222 31.583 164.143 31.4967 164.047 31.4359L160.974 28.8841C160.939 28.8219 160.919 28.7524 160.916 28.6811C160.916 28.6231 160.934 28.5931 160.974 28.5931L165.091 28.4781C165.205 28.4899 165.319 28.4614 165.414 28.3977C165.51 28.334 165.58 28.239 165.613 28.1292L167.003 24.3594Z" fill="white"/>
</svg>

<svg xmlns="http://www.w3.org/2000/svg" viewBox="0 0 188 62"><path fill="#fff" d="M0 52V10.004h13.78V52H0Zm32.528-35.312L40.453 52h-15.08l-9.464-41.996h8.459a7.965 7.965 0 0 1 5.293 1.922 8.31 8.31 0 0 1 2.867 4.762ZM42.523 52V10.004h13.78V52h-13.78Zm24.189-26.026a8.213 8.213 0 0 1-4.228-1.124 8.336 8.336 0 0 1-3.046-3.046 8.206 8.206 0 0 1-1.125-4.229 8.056 8.056 0 0 1 1.125-4.2 8.437 8.437 0 0 1 3.046-3.016 8.232 8.232 0 0 1 4.228-1.124 8.083 8.083 0 0 1 4.199 1.124 8.504 8.504 0 0 1 3.016 3.017 8.075 8.075 0 0 1 1.125 4.2 8.226 8.226 0 0 1-1.125 4.228 8.4 8.4 0 0 1-3.016 3.046 8.059 8.059 0 0 1-4.201 1.124h.002ZM77.18 52V10.004h13.781V52H77.181Zm31.227-19.046c.039.04.334.524.887 1.449.553.925 1.272 2.108 2.159 3.549a1143.28 1143.28 0 0 1 5.589 9.168A854.89 854.89 0 0 0 120 52h-15.141c-.947-1.538-1.804-2.928-2.573-4.17a382.214 382.214 0 0 1-2.453-4.022 351.934 351.934 0 0 0-2.574-4.2 213.445 213.445 0 0 1-2.188-3.578 62.753 62.753 0 0 0-1.272-2.07 6.119 6.119 0 0 1-1.005-2.958 5.744 5.744 0 0 1 .946-2.84c.236-.394.67-1.095 1.3-2.1.632-1.006 1.371-2.198 2.219-3.579a636.03 636.03 0 0 0 2.574-4.229c.869-1.439 1.686-2.79 2.453-4.052.77-1.26 1.628-2.66 2.573-4.2H120l-11.711 19.106a3.773 3.773 0 0 0-.592 1.894c.039.706.286 1.385.709 1.952h.002ZM169.034 2.408a31.211 31.211 0 0 1 9.888 6.67 31.193 31.193 0 0 1 6.669 9.888 30.326 30.326 0 0 1 2.408 12.062 30.179 30.179 0 0 1-2.408 12.006 31.216 31.216 0 0 1-6.669 9.889 31.221 31.221 0 0 1-9.888 6.67 30.362 30.362 0 0 1-12.063 2.406 30.35 30.35 0 0 1-12.063-2.407 30.878 30.878 0 0 1-9.86-6.67 31.439 31.439 0 0 1-6.639-9.888 30.178 30.178 0 0 1-2.408-12.006 30.308 30.308 0 0 1 2.408-12.062 31.415 31.415 0 0 1 6.639-9.889 30.868 30.868 0 0 1 9.86-6.67A30.337 30.337 0 0 1 156.971.002c4.143-.03 8.249.79 12.063 2.407Zm-2.32 51.53a24.99 24.99 0 0 0 7.945-5.308 24.425 24.425 0 0 0 5.336-7.916 24.604 24.604 0 0 0 1.914-9.686 24.6 24.6 0 0 0-1.914-9.685 24.768 24.768 0 0 0-5.336-7.945 25.18 25.18 0 0 0-7.945-5.366 24.44 24.44 0 0 0-9.743-1.942 24.29 24.29 0 0 0-9.685 1.942 25.19 25.19 0 0 0-13.312 13.31 24.287 24.287 0 0 0-1.942 9.686 24.29 24.29 0 0 0 1.942 9.686 24.838 24.838 0 0 0 5.365 7.916 24.993 24.993 0 0 0 7.947 5.308 24.588 24.588 0 0 0 9.685 1.913 24.74 24.74 0 0 0 9.743-1.913Zm-23.286-19.43a4.561 4.561 0 0 1-1.362-3.305 4.701 4.701 0 0 1 1.362-3.422 4.489 4.489 0 0 1 3.335-1.392 4.747 4.747 0 0 1 3.45 1.392 4.596 4.596 0 0 1 1.422 3.422 4.466 4.466 0 0 1-1.422 3.306 4.738 4.738 0 0 1-3.45 1.392 4.49 4.49 0 0 1-3.335-1.392Zm23.575-10.149c.039-.117.117-.117.233 0l1.392 3.77a.456.456 0 0 0 .464.35l4.117.114c.077 0 .116.03.116.088a.316.316 0 0 1-.116.203l-2.958 2.552a.447.447 0 0 0-.272.226.453.453 0 0 0-.018.354l1.045 3.77c0 .193-.059.29-.175.29l-3.422-2.262c-.224-.08-.47-.08-.695 0l-3.248 2.262c-.155 0-.213-.097-.173-.29l1.044-3.77a.63.63 0 0 0-.29-.58l-3.073-2.552a.453.453 0 0 1-.058-.203c0-.058.018-.088.058-.088l4.117-.115a.489.489 0 0 0 .522-.349l1.39-3.77Z"/></svg>
